X:1
T:Title
%%score ( 1 2 ) ( 3 4 )
L:1/8
Q:1/4=60
M:4/8
K:Eb
V:1 treble nm="Strings 1, Treble"
V:2 treble 
V:3 bass nm="Strings 1, Bass"
V:4 bass 
V:1
 z2 z E | z2 .A z | [EB][EB]E[EF] | [EG]>[EG][GB][EG] | [DF]3 E | z2 .A z | [EB][EB]E[EF] | %7
 [EG]>[EG][DA][DF] | E3 [GB] | [GB][Ge][Fd]/.[Ge]/[Af] | [Ge][Ge][GB][EG] | %11
 [GB][Ge][Fd]/.[Ge]/[Af] | [Ge]2 .[Bd][Ac] | [GB][GB][FA]/.[GB]/[Ac] | [GB][GB]E[EF] | %15
 [EG]>[EG][DA][B,F] | E3 z |] %17
V:2
 x4 | [EG][EG]E/-[EB]/[Ec] | x4 | x4 | x4 | [EG][EG]E/-[EB]/[Ec] | x4 | x4 | x4 | x4 | x4 | x4 | %12
 x4 | x4 | x4 | x4 | x4 |] %17
V:3
 z2 z [E,G,] | [E,B,][E,B,]C/B,/[E,A,] | [E,G,][E,G,][E,G,][E,A,] | [E,B,]>[E,B,][E,B,][E,B,] | %4
w: 1.~Wher|e'er~ my~ Sav * ior's~|hand~ may~ lead,~ What|e'er~ my~ lot~ may~|
 B,2 A,[E,G,] | [E,B,][E,B,]C/B,/[E,A,] | [E,G,][E,G,][G,B,][A,C] | B,>B,[B,,B,][B,,A,] | %8
w: be,~ * I~|will~ not~ mur * mur~|nor~ re pine,~ I'll~|know~ 'tis~ well~ with~|
 [E,G,]3 [E,E] | [E,E][E,B,][B,,B,][B,,B,] | [E,B,][E,B,][E,E][E,E] | [E,E][E,B,][B,,B,][B,,B,] | %12
w: me.~ *||||
 [E,B,][E,B,][G,E][A,E] | [E,E][E,E][E,E][E,E] | [E,E][E,E][G,B,][A,C] | B,>B,[B,,B,][B,,A,] | %16
w: ||||
 [E,G,]3 z |] %17
w: |
V:4
 x4 | z2 E, z | x4 | x4 | B,,3 z | z2 E, z | x4 | x4 | x4 | x4 | x4 | x4 | x4 | x4 | x4 | x4 | %16
 x4 |] %17

